resources/svg/medium-line.svg

<svg fill="currentColor" viewBox="0 0 24 24" xmlns="http://www.w3.org/2000/svg"><path d="M4.00098 3H20.001C20.5533 3 21.001 3.44772 21.001 4V20C21.001 20.5523 20.5533 21 20.001 21H4.00098C3.44869 21 3.00098 20.5523 3.00098 20V4C3.00098 3.44772 3.44869 3 4.00098 3ZM5.00098 5V19H19.001V5H5.00098ZM17.3019 15.9403L18.256 16.8944V16.9446H13.3348V16.8944L14.3391 15.9403C14.4395 15.8399 14.4897 15.7394 14.4897 15.5888V9.6635C14.4897 9.41243 14.4897 9.06093 14.54 8.75964L11.2257 17.045H11.1754L7.76072 9.41243C7.7105 9.21157 7.66029 9.21157 7.61007 9.11114V14.1326C7.55985 14.4841 7.61007 14.7854 7.76072 15.0866L9.11657 16.8944V16.9446H5.50098V16.8944L6.85682 15.0364C7.00747 14.7351 7.05769 14.3836 7.00747 14.0824V8.55879C7.00747 8.30771 6.95726 8.00643 6.75639 7.80557L5.85249 6.55021V6.5H9.36765L12.2802 12.9776L14.8413 6.5H18.256V6.55021L17.3019 7.65493C17.2014 7.75536 17.1512 7.906 17.1512 8.00643V15.639C17.1512 15.7394 17.2014 15.8901 17.3019 15.9403Z"/></svg>

<svg xmlns="http://www.w3.org/2000/svg" viewBox="0 0 24 24" fill="currentColor">
    <g>
        <path fill="none" d="M0 0h24v24H0z"/>
        <path d="M4 3h16a1 1 0 0 1 1 1v16a1 1 0 0 1-1 1H4a1 1 0 0 1-1-1V4a1 1 0 0 1 1-1zm1 2v14h14V5H5zm12.3 10.94l.955.954v.05h-4.921v-.05l1.004-.954c.1-.1.15-.2.15-.351V9.664c0-.252 0-.603.051-.904l-3.314 8.285h-.05L7.76 9.412c-.05-.2-.1-.2-.15-.3v5.02c-.051.352 0 .653.15.955l1.356 1.807v.05H5.5v-.05l1.356-1.858c.15-.3.2-.652.15-.954V8.56c0-.251-.05-.553-.25-.753L5.851 6.55V6.5h3.515l2.912 6.478L14.84 6.5h3.415v.05l-.954 1.105c-.1.1-.15.251-.15.351v7.633c0 .1.05.251.15.301z"/>
    </g>
</svg>
